images/header/offer-4.svg

<svg width="62" height="63" viewBox="0 0 62 63" fill="none" xmlns="http://www.w3.org/2000/svg">
<g clip-path="url(#clip0)">
<path d="M24.2978 39.0623C24.1259 39.0398 22.9528 36.6642 22.9528 36.6642L20.6253 34.8718L19.3779 36.1196L18.2579 37.1829C17.9476 37.4898 17.6614 37.8168 17.3995 38.16L17.2715 40.4431L20.3646 41.9033C20.3646 41.9034 24.4696 39.0849 24.2978 39.0623Z" fill="#FFE0D1"/>
<path d="M28.9909 30.0674L27.3338 28.6816C26.5316 28.0108 25.3587 28.1436 24.714 28.9782C24.0693 29.8127 24.197 31.0332 24.999 31.704L26.6561 33.0898L27.8304 34.0446L30.5073 31.4085L28.9909 30.0674Z" fill="#FABC91"/>
<path d="M20.5284 37.8903C20.7915 37.537 21.0789 37.2004 21.3907 36.8844L22.2349 36.0629L20.7204 34.8718L19.4377 36.1821L18.2859 37.2988C17.9667 37.6211 17.6725 37.9644 17.4031 38.3249L17.2715 40.7224L18.863 41.4897C19.1658 40.1858 19.7324 38.9593 20.5284 37.8903Z" fill="#FAA875"/>
<path d="M24.187 35.807L22.4736 34.4603C21.6441 33.8084 20.4313 33.9375 19.7646 34.7485C19.098 35.5594 19.23 36.7454 20.0593 37.3973L21.7728 38.744L23.9867 40.6626L26.3711 37.6205L24.187 35.807Z" fill="#FABC91"/>
<path d="M26.4217 32.9401L24.7956 31.5717C24.0084 30.9094 22.8573 31.0404 22.2247 31.8646C21.592 32.6887 21.7172 33.8938 22.5044 34.5561L24.1305 35.9245L26.2033 37.7673L28.4392 34.5906L26.4217 32.9401Z" fill="#FABC91"/>
<path d="M30.5073 31.3663L28.9889 30.0036L27.8869 29.0684L26.4156 31.0188C26.2755 31.2046 26.019 31.2346 25.8437 31.0859L25.8341 31.0777C25.0309 30.3961 24.9032 29.1562 25.5487 28.3081C25.563 28.2894 25.5797 28.2718 25.5944 28.2539C25.2195 28.3799 24.8765 28.6328 24.6303 29.0046C24.0634 29.8605 24.2564 31.0421 25.0274 31.6965L26.6513 33.0745L27.8271 34.0446L28.383 33.4891L30.5073 31.3663Z" fill="#FAA875"/>
<path d="M28.4392 34.667L26.4204 33.0561L25.3524 32.1796L24.0218 33.8855C23.8627 34.0895 23.5714 34.1226 23.3724 33.9592L23.223 33.8365C22.5451 33.2802 22.36 32.3293 22.7244 31.563C22.435 31.7358 22.1813 31.997 22.0127 32.3358C21.6174 33.1303 21.855 34.1032 22.5352 34.6616L24.1279 35.9688L26.202 37.7673L26.8336 36.892L28.4392 34.667Z" fill="#FAA875"/>
<path d="M31.2992 41.8406L30.6056 41.6798C29.7502 41.4819 29.1469 40.7169 29.1545 39.8396C29.1593 39.3268 29.3696 38.8634 29.7064 38.5285C30.0442 38.1926 30.5085 37.9852 31.0204 37.9833L34.9425 37.968C35.52 37.9661 36.0833 38.1469 36.5514 38.4847L41.4906 42.0395C42.0329 42.4305 42.4811 42.9367 42.8027 43.5219L44.6467 46.8759L51.1928 52.1374C51.6712 52.5219 51.739 53.2251 51.3427 53.6939L44.0682 62.2993C43.6856 62.752 43.0117 62.8168 42.5498 62.4455L37.6028 58.4688L37.3326 58.4584C35.7293 58.3994 34.1822 57.8504 32.8987 56.8855L29.8006 54.5553C29.8006 54.5553 24.5779 50.6676 24.5779 50.541C24.5779 50.4468 28.9719 44.8169 31.2992 41.8406Z" fill="#FABC91"/>
<path d="M29.7554 41.2283C30.3157 40.4967 30.8461 39.8051 31.2965 39.2182L30.6245 39.0594C30.2648 38.9746 29.9514 38.7841 29.7121 38.5251C29.7106 38.5266 29.7091 38.5277 29.7077 38.5291C29.3709 38.8641 29.1606 39.3274 29.1558 39.8403C29.1511 40.3814 29.3794 40.8794 29.7554 41.2283Z" fill="#F8D3AA"/>
<path d="M51.1942 52.1382L50.3026 51.4215L43.6688 59.4182C43.2981 59.8651 42.6452 59.9292 42.1976 59.5625L37.6071 55.8023C37.4756 55.6946 37.3125 55.6326 37.1426 55.6259C35.5892 55.5676 34.0901 55.0256 32.8465 54.0729L29.8447 51.7722C29.8447 51.7722 27.4133 49.9278 25.9211 48.7544C25.1196 49.795 24.5793 50.5087 24.5793 50.5418C24.5793 50.6683 29.8021 54.5561 29.8021 54.5561L32.9001 56.8863C34.1837 57.8511 35.7308 58.4001 37.3341 58.4591L37.6043 58.4696L42.5513 62.4461C43.0132 62.8175 43.6871 62.7526 44.0697 62.3L51.3442 53.6946C51.7404 53.2258 51.6726 52.5228 51.1942 52.1382Z" fill="#FAA875"/>
<path d="M36.5109 50.6033L36.8467 50.8465C37.8273 51.5566 39.1926 51.3734 39.9511 50.4296L43.8998 45.5168L42.8033 43.5224C42.4817 42.9372 42.0335 42.431 41.4912 42.0399L36.552 38.4852C36.0838 38.1474 35.5206 37.9666 34.943 37.9685L31.021 37.9837C30.5091 37.9856 30.0447 38.1931 29.707 38.5289C29.3701 38.8639 29.1599 39.3272 29.1551 39.8401C29.1475 40.7174 29.7507 41.4824 30.6061 41.6803L31.2998 41.8411C30.9164 42.3314 30.4767 42.8939 30.01 43.4916C30.0649 43.5069 30.1203 43.5211 30.1763 43.5341L30.8712 43.6952L33.0855 44.207C33.3097 46.7122 34.537 49.0175 36.5109 50.6033Z" fill="#FAA875"/>
<path d="M26.26 37.7748L24.1284 35.9647L23.0437 35.0929L21.8523 36.5888C21.6784 36.8071 21.36 36.8425 21.1424 36.6677L20.9352 36.5011C20.3133 36.0011 20.0937 35.1852 20.3201 34.4675C20.1223 34.5845 19.9429 34.7398 19.7929 34.9328C19.1581 35.7493 19.3299 36.9333 20.136 37.5813L21.7721 38.8962L23.9328 40.8112L24.5824 39.9636L26.26 37.7748Z" fill="#FAA875"/>
<path d="M41.4913 42.0395L36.5521 38.4847C36.084 38.1469 35.5207 37.9661 34.9432 37.968L31.0211 37.9833C30.5092 37.9852 30.0449 38.1926 29.7071 38.5285C29.3703 38.8634 29.16 39.3268 29.1553 39.8396C29.1477 40.7169 29.7509 41.4819 30.6063 41.6798L31.2999 41.8406C28.9726 44.8169 24.5786 50.4468 24.5786 50.541C24.5786 50.6676 29.8013 54.5554 29.8013 54.5554L30.913 55.3914C31.0931 55.206 31.2659 55.0118 31.4295 54.8082L41.6157 42.1344C41.5744 42.1024 41.5337 42.07 41.4913 42.0395Z" fill="#FAA875"/>
<path d="M41.352 36.9788C40.4871 36.2843 39.2236 36.4222 38.528 37.2862C38.8268 36.9151 38.9714 36.4707 38.9714 36.0293C38.9714 35.4422 38.7145 34.8589 38.2207 34.4622C37.3567 33.7676 36.0922 33.9055 35.3967 34.7695C35.6954 34.3984 35.8401 33.9541 35.8401 33.5126C35.8401 32.9255 35.5832 32.3432 35.0903 31.9464C34.2254 31.2509 32.9608 31.3888 32.2663 32.2528C32.9608 31.3888 32.8238 30.1243 31.9589 29.4297C31.5879 29.131 31.1435 28.9863 30.702 28.9863C30.114 28.9863 29.5317 29.2432 29.1349 29.7371L23.2371 37.0747L20.5774 40.4093L17.4668 38.3074C16.3965 39.7191 15.7478 41.4164 15.6151 43.2007L15.3401 46.9001L10.1069 53.41C9.77601 53.8216 9.83167 54.4216 10.2325 54.7654L19.4252 62.6483C19.8445 63.008 20.4783 62.9492 20.8243 62.5185L25.5714 56.612C25.6694 56.4911 25.8102 56.4112 25.9644 56.3893C27.677 56.1476 29.2337 55.2628 30.3174 53.9145L41.6592 39.803C41.957 39.4319 42.1026 38.9875 42.1026 38.546C42.1028 37.9579 41.8459 37.3756 41.352 36.9788Z" fill="#FABC91"/>
<path d="M13.3861 54.0325C12.9945 53.6955 12.9402 53.1073 13.2633 52.7038L18.3741 46.322L18.6427 42.6954C18.7219 41.6268 18.99 40.5906 19.4242 39.6301L17.4668 38.3074C16.3965 39.7191 15.7478 41.4164 15.6151 43.2007L15.3401 46.9001L10.1069 53.41C9.77601 53.8216 9.83167 54.4216 10.2325 54.7654L19.4252 62.6483C19.8445 63.0079 20.4783 62.9491 20.8243 62.5185L21.814 61.2872L13.3861 54.0325Z" fill="#FAA875"/>
<path d="M37.6651 36.9418C36.8705 36.3685 35.9322 36.0654 34.9517 36.0654L31.0136 36.0807C30.0144 36.0844 29.0738 36.4746 28.3648 37.1794C27.6563 37.8839 27.2611 38.8226 27.2519 39.8235C27.2363 41.6063 28.4391 43.1321 30.176 43.534L30.8708 43.6951L33.0852 44.2069C33.2256 45.7769 33.7601 47.2683 34.6253 48.5532L41.6516 39.8111L37.6651 36.9418Z" fill="#FAA875"/>
<path d="M42.8025 43.5226L44.1594 45.9908L40.2858 50.9699L38.2354 49.5493L37.7035 49.1212C36.0098 47.7605 35.0032 45.7206 34.9527 43.5473L34.9337 42.6815L31.299 41.8413L30.6054 41.6805C29.75 41.4826 29.1468 40.7176 29.1544 39.8403C29.1591 39.3275 29.3694 38.8641 29.7062 38.5292C30.044 38.1933 30.5083 37.9859 31.0202 37.984L34.9423 37.9688C35.5198 37.9669 36.0831 38.1476 36.5512 38.4854L41.4904 42.0402C42.0328 42.4313 42.4809 42.9374 42.8025 43.5226Z" fill="#FABC91"/>
<path d="M35.2259 7.95248C32.6738 7.06844 30.1534 7.06633 27.6644 7.94597C27.0657 8.15756 26.7879 8.85086 27.0632 9.42479L30.4864 16.5631C30.8757 17.3748 32.0274 17.3748 32.4168 16.5631L35.8355 9.43455C36.1123 8.85718 35.8292 8.16139 35.2259 7.95248Z" fill="url(#paint0_linear)"/>
<path d="M57.36 18.5298C56.0134 16.2005 54.1478 14.5721 51.7634 13.6446C51.1898 13.4215 50.5577 13.7772 50.4087 14.3978L48.5542 22.1161C48.3434 22.9939 49.1966 23.7372 49.9841 23.3621L56.9002 20.0669C57.4602 19.8001 57.6784 19.0804 57.36 18.5298Z" fill="url(#paint1_linear)"/>
<path d="M5.53852 18.5298C6.88513 16.2005 8.75076 14.5721 11.1352 13.6446C11.7088 13.4215 12.3409 13.7772 12.4899 14.3978L14.3443 22.1161C14.5551 22.9939 13.702 23.7372 12.9145 23.3621L5.99836 20.0669C5.43854 19.8001 5.2202 19.0804 5.53852 18.5298Z" fill="url(#paint2_linear)"/>
<path d="M20.6741 40.3982L21.8213 39.0512L20.6382 38.1809L19.505 39.5114C19.2383 39.8247 19.3011 40.2845 19.6433 40.5237C19.967 40.7497 20.4219 40.6944 20.6741 40.3982Z" fill="#FAA875"/>
</g>
<defs>
<linearGradient id="paint0_linear" x1="35.7523" y1="16.4164" x2="26.586" y2="-0.524931" gradientUnits="userSpaceOnUse">
<stop stop-color="#F09642"/>
<stop offset="1" stop-color="#F4E26E"/>
</linearGradient>
<linearGradient id="paint1_linear" x1="49.1899" y1="16.8971" x2="54.7656" y2="25.1286" gradientUnits="userSpaceOnUse">
<stop stop-color="#272671"/>
<stop offset="1" stop-color="#7BB3CB"/>
</linearGradient>
<linearGradient id="paint2_linear" x1="6.05952" y1="16.8971" x2="11.6352" y2="25.1286" gradientUnits="userSpaceOnUse">
<stop stop-color="#272671"/>
<stop offset="1" stop-color="#7BB3CB"/>
</linearGradient>
<clipPath id="clip0">
<rect width="62" height="62" fill="white" transform="translate(0 0.998047)"/>
</clipPath>
</defs>
</svg>

<svg width="62" height="63" fill="none" xmlns="http://www.w3.org/2000/svg"><g clip-path="url(#a)"><path d="M24.298 39.062c-.172-.022-1.345-2.398-1.345-2.398l-2.328-1.792-1.247 1.248-1.12 1.063a9.36 9.36 0 0 0-.858.977l-.128 2.283 3.093 1.46s4.105-2.818 3.933-2.84Z" fill="#FFE0D1"/><path d="m28.99 30.067-1.656-1.385a1.815 1.815 0 0 0-2.62.296c-.645.835-.517 2.055.285 2.726l1.657 1.386 1.174.955 2.677-2.637-1.516-1.34Z" fill="#FABC91"/><path d="M20.528 37.89c.264-.353.55-.69.863-1.006l.844-.821-1.515-1.191-1.282 1.31-1.152 1.117c-.32.322-.614.665-.883 1.026l-.131 2.397 1.591.768a9.7 9.7 0 0 1 1.665-3.6Z" fill="#FAA875"/><path d="m24.187 35.807-1.713-1.347a1.957 1.957 0 0 0-2.71.288 1.856 1.856 0 0 0 .295 2.65l1.714 1.346 2.214 1.919 2.384-3.042-2.184-1.814Z" fill="#FABC91"/><path d="m26.422 32.94-1.626-1.368c-.788-.663-1.939-.532-2.571.293-.633.824-.508 2.029.28 2.691l1.626 1.369 2.072 1.842 2.236-3.176-2.017-1.65Z" fill="#FABC91"/><path d="m30.507 31.366-1.518-1.362-1.102-.936-1.471 1.95a.392.392 0 0 1-.572.068l-.01-.008c-.803-.682-.93-1.922-.285-2.77.014-.019.03-.036.045-.054a1.873 1.873 0 0 0-.964.75c-.567.856-.374 2.038.397 2.692l1.624 1.378 1.176.97.556-.555 2.124-2.123ZM28.44 34.667l-2.02-1.61-1.068-.877-1.33 1.706a.455.455 0 0 1-.65.073l-.149-.123a1.898 1.898 0 0 1-.499-2.273c-.289.173-.543.434-.711.773-.396.794-.158 1.767.522 2.326l1.593 1.307 2.074 1.798.632-.875 1.605-2.225Z" fill="#FAA875"/><path d="m31.3 41.84-.694-.16a1.873 1.873 0 0 1 .414-3.697l3.923-.015a2.734 2.734 0 0 1 1.608.517l4.94 3.554c.542.392.99.898 1.312 1.483l1.844 3.354 6.546 5.261c.478.385.546 1.088.15 1.557l-7.275 8.605a1.092 1.092 0 0 1-1.518.147l-4.947-3.977-.27-.01a7.86 7.86 0 0 1-4.434-1.574l-3.098-2.33s-5.223-3.887-5.223-4.014c0-.094 4.394-5.724 6.721-8.7Z" fill="#FABC91"/><path d="m29.755 41.228 1.542-2.01-.672-.159a1.804 1.804 0 0 1-.913-.534l-.004.004a1.869 1.869 0 0 0 .047 2.7Z" fill="#F8D3AA"/><path d="m51.194 52.138-.891-.716-6.634 7.996a1.045 1.045 0 0 1-1.471.145l-4.59-3.76a.782.782 0 0 0-.465-.177 7.527 7.527 0 0 1-4.297-1.553l-3.001-2.3s-2.432-1.845-3.924-3.019c-.801 1.041-1.342 1.755-1.342 1.788 0 .126 5.223 4.014 5.223 4.014l3.098 2.33a7.861 7.861 0 0 0 4.434 1.573l.27.01 4.947 3.977a1.092 1.092 0 0 0 1.519-.146l7.274-8.605a1.092 1.092 0 0 0-.15-1.557Z" fill="#FAA875"/><path d="m36.51 50.603.337.243c.98.71 2.346.527 3.104-.416l3.949-4.913-1.097-1.995a4.5 4.5 0 0 0-1.312-1.482l-4.939-3.555a2.734 2.734 0 0 0-1.609-.517l-3.922.016c-.512.002-.976.21-1.314.545a1.873 1.873 0 0 0 .9 3.151l.693.161-1.29 1.65c.055.016.11.03.166.043l.695.161 2.215.512a9.25 9.25 0 0 0 3.425 6.396ZM26.26 37.775l-2.132-1.81-1.084-.872-1.192 1.496a.504.504 0 0 1-.71.079l-.207-.167a1.883 1.883 0 0 1-.615-2.033 1.876 1.876 0 0 0-.527.465c-.635.816-.463 2 .343 2.648l1.636 1.315 2.16 1.915.65-.847 1.678-2.19Z" fill="#FAA875"/><path d="m41.491 42.04-4.939-3.555a2.734 2.734 0 0 0-1.609-.517l-3.922.015c-.512.002-.976.21-1.314.546a1.873 1.873 0 0 0 .9 3.151l.693.16c-2.327 2.977-6.721 8.607-6.721 8.701 0 .127 5.222 4.014 5.222 4.014l1.112.836c.18-.185.353-.38.517-.583l10.186-12.674c-.042-.032-.082-.064-.125-.095Z" fill="#FAA875"/><path d="M41.352 36.979a2.01 2.01 0 0 0-2.824.307 2.006 2.006 0 0 0-.307-2.824 2.01 2.01 0 0 0-2.824.307 2.006 2.006 0 0 0-.306-2.823 2.009 2.009 0 0 0-2.825.307 2.008 2.008 0 1 0-3.131-2.516l-5.898 7.338-2.66 3.334-3.11-2.102a9.234 9.234 0 0 0-1.852 4.894l-.275 3.7-5.233 6.509a.978.978 0 0 0 .126 1.355l9.192 7.883c.42.36 1.053.301 1.4-.13l4.746-5.906c.098-.12.24-.2.393-.223a6.805 6.805 0 0 0 4.353-2.475L41.66 39.803a2.004 2.004 0 0 0-.307-2.824Z" fill="#FABC91"/><path d="M13.386 54.032a.961.961 0 0 1-.123-1.328l5.111-6.382.269-3.627a9.067 9.067 0 0 1 .781-3.065l-1.957-1.323a9.234 9.234 0 0 0-1.852 4.894l-.275 3.7-5.233 6.509a.978.978 0 0 0 .126 1.355l9.192 7.883c.42.36 1.053.301 1.4-.13l.989-1.23-8.428-7.255ZM37.665 36.942a4.61 4.61 0 0 0-2.713-.877l-3.938.016c-1 .003-1.94.394-2.65 1.098a3.754 3.754 0 0 0-1.112 2.645 3.753 3.753 0 0 0 2.924 3.71l.695.161 2.214.512a9.25 9.25 0 0 0 1.54 4.346l7.027-8.742-3.987-2.87Z" fill="#FAA875"/><path d="m42.803 43.523 1.356 2.468-3.873 4.979-2.05-1.42-.532-.429a7.369 7.369 0 0 1-2.751-5.574l-.02-.865-3.634-.84-.694-.161a1.873 1.873 0 0 1 .415-3.697l3.922-.015a2.734 2.734 0 0 1 1.61.516l4.938 3.555c.543.391.99.897 1.313 1.483Z" fill="#FABC91"/><path d="M35.226 7.952c-2.552-.884-5.073-.886-7.562-.006a1.075 1.075 0 0 0-.6 1.479l3.422 7.138a1.07 1.07 0 0 0 1.93 0l3.42-7.128a1.076 1.076 0 0 0-.61-1.483Z" fill="url(#b)"/><path d="M57.36 18.53c-1.347-2.33-3.212-3.958-5.597-4.885-.573-.223-1.205.132-1.354.753l-1.855 7.718c-.21.878.643 1.621 1.43 1.246l6.916-3.295c.56-.267.778-.987.46-1.537Z" fill="url(#c)"/><path d="M5.539 18.53c1.346-2.33 3.212-3.958 5.596-4.885.574-.223 1.206.132 1.355.753l1.854 7.718c.211.878-.642 1.621-1.43 1.246l-6.916-3.295c-.56-.267-.778-.987-.46-1.537Z" fill="url(#d)"/><path d="m20.674 40.398 1.147-1.347-1.183-.87-1.133 1.33a.682.682 0 0 0 .138 1.013.78.78 0 0 0 1.031-.126Z" fill="#FAA875"/></g><defs><linearGradient id="b" x1="35.752" y1="16.416" x2="26.586" y2="-.525" gradientUnits="userSpaceOnUse"><stop stop-color="#F09642"/><stop offset="1" stop-color="#F4E26E"/></linearGradient><linearGradient id="c" x1="49.19" y1="16.897" x2="54.766" y2="25.129" gradientUnits="userSpaceOnUse"><stop stop-color="#272671"/><stop offset="1" stop-color="#7BB3CB"/></linearGradient><linearGradient id="d" x1="6.06" y1="16.897" x2="11.635" y2="25.129" gradientUnits="userSpaceOnUse"><stop stop-color="#272671"/><stop offset="1" stop-color="#7BB3CB"/></linearGradient><clipPath id="a"><path fill="#fff" transform="translate(0 .998)" d="M0 0h62v62H0z"/></clipPath></defs></svg>
